X: 2189
T: Auntie Em's
R: waltz
M: 3/4
K: Aminor
|:G,2|A,2- A,>^G, A,>B,|C2- C>B, C>D|E2 E>^D E>A|c2 (3BcB A2|
G<D- D2- D>B,|G,2 B,2 D2|E2 F>E D>E|D2 E>D (3DCB,|
A,2- A,>^G, A,>B,|C2- C>B, C>D|E2 E>^D E>A|(3cdc (3BcB (3ABA|
G<D- D2- D>B,|G,<B,- B,2- B,>D|(3CDC B,2 [E,2E2]|1 A,4:|2 A,2- A,3/2||
|:E/ A>B|c2 e2- e>c|B2 d2- d>B|A2- A>E A>B|c2 (3BcB A2|
G<D- D2- D>G|B2 (3ABA G2|A<E- E2 ^D2|E2- E>E A>B|
c2 e2- e>c|B2 d2- d>B|A2- A>E A>B|c2 (3BcB A2|
G<D- D2- D>B,|G,<B,- B,2- B,>D|1 (3CDC B,2 [E,2E2]|A,2- A,3/2:|2 E2 F>E D<B,|A,4||

